svg/u1f4b8.svg

<svg viewBox="0 0 128 128" xmlns="http://www.w3.org/2000/svg">
  <g>
    <path d="M56.48,35.92c0.6-2.69,0.14-1.41-3.73-7.07c-3.48-5.08-2.76-12.3-6.88-15.89 c-2.53-2.2-5.7-4.67-17.51,1.27c-4.1,2.06-12.29,8.85-21.57,11.96c-7.47,2.5-3.33,5.52-1.74,6.08c5.66,1.99,13.15-2.31,13.15-2.31 s-10.74,7.02-4.43,8.68c5.12,1.35,11.57-4.8,11.57-4.8s-6.32,6.7-1.15,8.42c3.55,1.18,10.6-5.56,10.6-5.56s-4.93,6.85-2.55,8.3 c3.62,2.2,9.55-3.47,9.55-3.47s-4.71,6.88-2.25,8c3.68,1.68,9.14-3.04,9.14-3.04S55.4,40.73,56.48,35.92z" fill="#E0E0E0"/>
    <path d="M35.68,13.76c0,0-6.44,3.78-8.79,6.82c-0.31,0.4-2.24,2.33-0.54,3.44c0.43,0.28,1.71,0.1,2.47-0.36 c3.46-2.1,9.58-7.08,10.25-6.82c0.67,0.26-5.47,4.3-7.45,9.19c-0.74,1.84,0.7,3.16,4.45,0.95c4.08-2.4,7.59-6.63,8.18-6.61 c0,0-1.64,2.86-3.74,5.12c-2.14,2.31-3.65,4.66-2.07,5.4c1.99,0.94,6.29-1.61,6.29-1.61s-2.74,3.32-6.29,4.07 c-1.25,0.27-2.23,0.1-2.83-0.58c-0.91-1.04-0.56-2.64-0.56-2.64c-1.89,0.75-5.15,1.97-7.09,0.33c-1.51-1.28,0.55-5.03,0.55-5.03 s-3.65,2.02-5.73,1.41c-1.08-0.32-2.73-1.88-0.32-5.19C26.26,16.48,35.68,13.76,35.68,13.76z" fill="#BDBDBD"/>
    <path d="M43.38,50.13c4.17-5.42,8.34-10.83,12.51-16.25l-0.36-1.56c-0.18-0.55-1.82-0.62-4.09,0.69 c-1.52,0.88-4.31,4.04-6.1,2.3c-1.24-1.2,2.32-5.49,2.32-5.49c-0.49,0.01-4.44,2.65-5.07,5.3c-0.54,2.25-0.02,4.89,5.06,2.32 c0.15-0.08,0.31-0.17,0.46-0.26c-0.64,1.01-1.22,2.07-1.71,3.15C44.98,43.45,44.14,46.79,43.38,50.13z" fill="#BDBDBD"/>
    <linearGradient id="SVGID_1_" gradientTransform="matrix(0.8038 0.5949 -0.5949 0.8038 58.2507 -37.7388)" gradientUnits="userSpaceOnUse" x1="47.7173" x2="47.7173" y1="25.5155" y2="25.5155">
      <stop offset="0" stop-color="#43A047"/>
      <stop offset="0.9992" stop-color="#66BB6A"/>
    </linearGradient>
    <line fill="url(#SVGID_1_)" x1="81.39" x2="81.46" y1="11.13" y2="11.18"/>
    <path d="M87.13,70.83c-10.05,15.06-18.5,31.65-37.72,36.73c-0.2,0.05-0.41-0.01-0.55-0.16L17.46,72.75 c-0.93-1.03-0.47-2.66,0.85-3.09c12.91-4.24,20.97-14.34,28.15-25.11c9.9-14.83,18.38-31.15,36.99-36.5 c0.71-0.27,1.54-0.1,2.08,0.49c0,0,0,0,0,0l0,0c4.17,4.6,35.62,34.54,35.67,34.6C121.22,43.15,94.84,59.27,87.13,70.83z" fill="#66BB6A"/>
    <g>
      <path d="M58.11,77.71c-0.68-0.68-1.49-1.02-2.43-1.01s-2.16,0.39-3.67,1.14c-2.05,1.09-3.83,1.6-5.32,1.55 c-1.49-0.06-2.83-0.68-4.01-1.87c-1.21-1.21-1.85-2.56-1.91-4.04c-0.07-1.48,0.44-2.91,1.53-4.29l-1.91-1.92 c-0.28-0.28-0.28-0.74,0-1.03l0.62-0.62c0.28-0.28,0.74-0.28,1.03,0l1.92,1.93c1.41-1.07,2.9-1.51,4.46-1.33 c1.4,0.17,2.78,0.86,4.13,2.1c0.26,0.24,0.26,0.66,0.01,0.91l-1.14,1.14c-0.24,0.24-0.63,0.24-0.88,0.01 c-0.9-0.78-1.83-1.23-2.78-1.33c-1.11-0.12-2.09,0.24-2.93,1.08c-0.88,0.88-1.33,1.78-1.34,2.69c-0.01,0.92,0.39,1.79,1.2,2.6 c0.75,0.76,1.6,1.11,2.54,1.07c0.94-0.04,2.15-0.44,3.65-1.2s2.77-1.23,3.85-1.42c1.07-0.19,2.05-0.14,2.93,0.14 c0.88,0.29,1.71,0.82,2.49,1.6c1.24,1.25,1.87,2.63,1.88,4.14c0.01,1.51-0.59,3.01-1.81,4.5l1.6,1.6c0.28,0.28,0.28,0.74,0,1.03 l-0.61,0.61c-0.28,0.28-0.74,0.28-1.03,0l-1.6-1.6c-1.5,1.24-3.07,1.83-4.7,1.75c-1.45-0.07-2.84-0.69-4.16-1.86 c-0.27-0.24-0.27-0.66-0.01-0.91l1.16-1.15c0.23-0.23,0.6-0.25,0.85-0.04c0.89,0.77,1.81,1.16,2.76,1.18 c1.09,0.02,2.13-0.47,3.12-1.46c0.97-0.96,1.5-1.96,1.59-2.97C59.26,79.42,58.91,78.51,58.11,77.71z" fill="#FFFFFF"/>
      <polygon points="60.67,84.74 58.57,85.91 42.34,69.25 41.79,68.69 43.96,67.56 60.19,84.26 " fill="#FFFFFF"/>
    </g>
    <circle cx="75.88" cy="45.55" r="14.42" opacity="0.5" fill="#2E7D32"/>
    <path d="M92.16,78.42c-5.15,7.72-12.57,22.45-22.79,30.55c-9.38,7.44-21.21,11.11-21.21,11.11 c0,0-32.55-38.12-32.55-38.12l1.35-10.46l31.92,35.91c0.13,0.14,0.33,0.21,0.52,0.16c19.23-5.08,27.68-21.67,37.73-36.73 c7.71-11.56,19.24-23.88,34.08-27.68c1.18,1.3,0.66,12.2-0.63,12.63C107.43,60.15,99.36,67.61,92.16,78.42z" fill="#2E7D32"/>
    <path d="M78.85,83.52l3.02,11.15c0,0,9.2-13.46,10.69-16.72L89.22,67.9C84.76,73.45,78.85,83.52,78.85,83.52 z" fill="#FFC06C"/>
    <path d="M78.07,17.01c0.77,1.11,2.12,2.26,4.29,2.93c0.77,0.24,1.58,0.36,2.39,0.36 c1.72,0,3.16-0.53,4.13-1.02c2.43,2.44,5.47,5.41,8.41,8.29c2.88,2.82,5.84,5.72,8.25,8.13c-0.78,1.19-1.4,2.99-1.14,5.42 c0.12,1.12,0.91,2.26,1.75,3.19c-5.32,3.42-15.53,11.02-26,24.42c-2.21,2.83-4.37,5.97-6.45,9c-5.18,7.54-10.53,15.32-17.65,20.08 c-0.84-1.37-2.39-3.03-5.16-3.72c-0.67-0.17-1.33-0.25-1.96-0.25c-1.78,0-3.18,0.66-4.18,1.44l-15.1-17.36 c1.27-0.99,2.46-2.68,2.58-5.29c0.06-1.22-0.59-2.33-1.33-3.17c7.36-5.45,15.13-14.14,19.31-20.38c0.61-0.91,1.24-1.86,1.89-2.84 C58.64,36.37,67.5,23.05,78.07,17.01 M78.86,14.67c-12.72,6.3-22.85,22.71-30.06,33.45c-4.72,7.03-13.25,16.2-20.6,21.15 c0,0,2.41,1.71,2.33,3.26c-0.2,4.16-3.58,4.86-3.58,4.86l17.75,20.4c0,0,1.3-2.28,4.22-2.28c0.47,0,0.99,0.06,1.55,0.2 c4.02,1,4.83,4.54,4.83,4.54c11.34-6.6,18.19-20.27,26.17-30.5c10.83-13.87,21.6-21.73,27.43-25.18c0,0-2.68-2.17-2.83-3.65 c-0.41-3.89,1.79-5.29,1.79-5.29c-5.15-5.21-13.61-13.32-18.73-18.51c0,0-1.86,1.46-4.39,1.46c-0.6,0-1.24-0.08-1.89-0.28 C79.17,17.19,78.86,14.67,78.86,14.67L78.86,14.67z" fill="#2E7D32"/>
    <path d="M53.82,33.32l-9.73,14.71l34.76,35.49c0,0,5.68-8.98,10.36-15.62L53.82,33.32z" fill="#FFECB3"/>
    <path d="M90.62,72.12c0,0-6.86,3.49-8.73,14.13c-0.71,4.02-0.01,8.42-0.01,8.42l5.66-8.71 l4.05-12.11L90.62,72.12z" opacity="0.68" fill="#D69136"/>
    <path d="M88.65,74.43c1.99-1.91,2.65-2.5,8.87-2.95c6.14-0.45,8.96-3.14,16.72-1.53 c3.28,0.68,8.48,3.68,7.16,15.64c-0.5,4.56-0.38,15.1,1.77,24.65c1.73,7.68-3,5.71-4.3,4.64c-4.64-3.81-4.84-12.44-4.84-12.44 s-0.44,12.82-5.13,8.29c-3.8-3.68-1.89-12.38-1.89-12.38s-2.46,8.88-6.61,5.34c-2.85-2.43-0.73-11.95-0.73-11.95 s-3.31,7.77-5.77,6.48c-3.76-1.96-1.98-9.97-1.98-9.97s-3.44,7.59-5.68,6.06c-3.34-2.28-2.13-9.39-2.13-9.39 S85.09,77.84,88.65,74.43z" fill="#E0E0E0"/>
    <path d="M118.34,79.28c0,0,0.48,6.18,0.05,9.87c-0.27,2.29-0.39,4.39-2.49,4.08 c-0.51-0.08-1.7-1.07-1.91-4.88c-0.22-4.04,0.62-9.38,0.03-9.78c-0.59-0.41-0.62,6.6-3.54,10.99c-1.1,1.65-2.95,1.83-3.24-2.52 c-0.32-4.73,2.13-10.33,1.78-10.81c0,0-2.07,2.55-3.27,6.16c-1.2,3.61-1.73,5.31-3.14,4.27c-2.53-1.86,1.18-9.27,1.18-9.27 s-2.72,2.43-3.9,5.83c-0.75,2.16-0.34,5.71,1.58,6.61c2.26,1.06,3.58-0.83,3.58-0.83s0.48,6.05,3.43,5.92 c2.83-0.13,3.55-3.32,3.55-3.32s-0.12,3.08,2.74,5.19c1.39,1.03,4.62,1.2,5.02-2.88C120.44,87.29,118.34,79.28,118.34,79.28z" fill="#BDBDBD"/>
    <path d="M95.07,77.11c-0.61-0.15-1.49,2.6-2.59,4.15c-0.42,0.58-1.32,1.77-2.7,1.67 c-1.38-0.1-0.29-4.16-0.61-3.94c-0.32,0.22-1.61,2.39-1.1,4.91c0.14,0.7,0.85,1.53,1.55,1.64c2.62,0.42,3.77-2.8,3.77-2.8 s-0.39,3.85,2.2,4.25c3.13,0.48,3.77-4.45,3.49-4.63c-0.28-0.18-1.29,3.1-3.52,1.7C93.73,82.9,95.68,77.27,95.07,77.11z" fill="#BDBDBD"/>
    <path d="M15.61,81.95l32.43,37.99c0,0,1.45-2.15,1.78-5.5c0.29-2.92-0.73-6.8-0.73-6.8L16.96,71.49 L15.61,81.95z" fill="#206022"/>
  </g>
</svg>

<svg viewBox="0 0 128 128" xmlns="http://www.w3.org/2000/svg">
  <defs>
    <linearGradient id="SVGID_1_" gradientTransform="matrix(0.8038 0.5949 -0.5949 0.8038 0 0)" gradientUnits="userSpaceOnUse" x1="72.08839" x2="72.08839" y1="-39.47226" y2="-39.47226">
      <stop offset="0" stop-color="#43A047"/>
      <stop offset="0.9992" stop-color="#66BB6A"/>
    </linearGradient>
  </defs>
  <path d="M56.48,35.92 C57.08,33.23 56.62,34.51 52.75,28.85 C49.27,23.77 49.99,16.55 45.87,12.96 C43.34,10.76 40.17,8.29 28.36,14.23 C24.26,16.29 16.07,23.08 6.79,26.19 C-0.68,28.69 3.46,31.71 5.05,32.27 C10.71,34.26 18.2,29.96 18.2,29.96 C18.2,29.96 7.46,36.98 13.77,38.64 C18.89,39.99 25.34,33.84 25.34,33.84 C25.34,33.84 19.02,40.54 24.19,42.26 C27.74,43.44 34.79,36.7 34.79,36.7 C34.79,36.7 29.86,43.55 32.24,45 C35.86,47.2 41.79,41.53 41.79,41.53 C41.79,41.53 37.08,48.41 39.54,49.53 C43.22,51.21 48.68,46.49 48.68,46.49 C48.68,46.49 55.4,40.73 56.48,35.92 Z" fill="#E0E0E0"/>
  <path d="M35.68,13.76 C35.68,13.76 29.24,17.54 26.89,20.58 C26.58,20.98 24.65,22.91 26.35,24.02 C26.78,24.3 28.06,24.12 28.82,23.66 C32.28,21.56 38.4,16.58 39.07,16.84 C39.74,17.1 33.6,21.14 31.62,26.03 C30.88,27.87 32.32,29.19 36.07,26.98 C40.15,24.58 43.66,20.35 44.25,20.37 C44.25,20.37 42.61,23.23 40.51,25.49 C38.37,27.8 36.86,30.15 38.44,30.89 C40.43,31.83 44.73,29.28 44.73,29.28 C44.73,29.28 41.99,32.6 38.44,33.35 C37.19,33.62 36.21,33.45 35.61,32.77 C34.7,31.73 35.05,30.13 35.05,30.13 C33.16,30.88 29.9,32.1 27.96,30.46 C26.45,29.18 28.51,25.43 28.51,25.43 C28.51,25.43 24.86,27.45 22.78,26.84 C21.7,26.52 20.05,24.96 22.46,21.65 C26.26,16.48 35.68,13.76 35.68,13.76 Z" fill="#BDBDBD"/>
  <path d="M43.38,50.13 C47.55,44.71 51.72,39.3 55.89,33.88 L55.53,32.32 C55.35,31.77 53.71,31.7 51.44,33.01 C49.92,33.89 47.13,37.05 45.34,35.31 C44.1,34.11 47.66,29.82 47.66,29.82 C47.17,29.83 43.22,32.47 42.59,35.12 C42.05,37.37 42.57,40.01 47.65,37.44 C47.8,37.36 47.96,37.27 48.11,37.18 C47.47,38.19 46.89,39.25 46.4,40.33 C44.98,43.45 44.14,46.79 43.38,50.13 Z" fill="#BDBDBD"/>
  <path d="M87.13,70.83 C77.08,85.89 68.63,102.48 49.41,107.56 C49.21,107.61 49,107.55 48.86,107.4 L17.46,72.75 C16.53,71.72 16.99,70.09 18.31,69.66 C31.22,65.42 39.28,55.32 46.46,44.55 C56.36,29.72 64.84,13.4 83.45,8.05 C84.16,7.78 84.99,7.95 85.53,8.54 C85.53,8.54 85.53,8.54 85.53,8.54 L85.53,8.54 C89.7,13.14 121.15,43.08 121.2,43.14 C121.22,43.15 94.84,59.27 87.13,70.83 Z" fill="#66BB6A"/>
  <path d="M58.11,77.71 C57.43,77.03 56.62,76.69 55.68,76.7 C54.74,76.71 53.52,77.09 52.01,77.84 C49.96,78.93 48.18,79.44 46.69,79.39 C45.2,79.33 43.86,78.71 42.68,77.52 C41.47,76.31 40.83,74.96 40.77,73.48 C40.7,72 41.21,70.57 42.3,69.19 L40.39,67.27 C40.11,66.99 40.11,66.53 40.39,66.24 L41.01,65.62 C41.29,65.34 41.75,65.34 42.04,65.62 L43.96,67.55 C45.37,66.48 46.86,66.04 48.42,66.22 C49.82,66.39 51.2,67.08 52.55,68.32 C52.81,68.56 52.81,68.98 52.56,69.23 L51.42,70.37 C51.18,70.61 50.79,70.61 50.54,70.38 C49.64,69.6 48.71,69.15 47.76,69.05 C46.65,68.93 45.67,69.29 44.83,70.13 C43.95,71.01 43.5,71.91 43.49,72.82 C43.48,73.74 43.88,74.61 44.69,75.42 C45.44,76.18 46.29,76.53 47.23,76.49 C48.17,76.45 49.38,76.05 50.88,75.29 C52.38,74.53 53.65,74.06 54.73,73.87 C55.8,73.68 56.78,73.73 57.66,74.01 C58.54,74.3 59.37,74.83 60.15,75.61 C61.39,76.86 62.02,78.24 62.03,79.75 C62.04,81.26 61.44,82.76 60.22,84.25 L61.82,85.85 C62.1,86.13 62.1,86.59 61.82,86.88 L61.21,87.49 C60.93,87.77 60.47,87.77 60.18,87.49 L58.58,85.89 C57.08,87.13 55.51,87.72 53.88,87.64 C52.43,87.57 51.04,86.95 49.72,85.78 C49.45,85.54 49.45,85.12 49.71,84.87 L50.87,83.72 C51.1,83.49 51.47,83.47 51.72,83.68 C52.61,84.45 53.53,84.84 54.48,84.86 C55.57,84.88 56.61,84.39 57.6,83.4 C58.57,82.44 59.1,81.44 59.19,80.43 C59.26,79.42 58.91,78.51 58.11,77.71 Z" fill="#FFFFFF"/>
  <path d="M60.67,84.74 L58.57,85.91 L42.34,69.25 L41.79,68.69 L43.96,67.56 L60.19,84.26 Z" fill="#FFFFFF"/>
  <path d="M90.3,45.55 A14.42 14.42 0 1 1 61.46,45.55 A14.42 14.42 0 1 1 90.3,45.55 Z" fill="#2E7D32" opacity="0.5"/>
  <path d="M92.16,78.42 C87.01,86.14 79.59,100.87 69.37,108.97 C59.99,116.41 48.16,120.08 48.16,120.08 C48.16,120.08 15.61,81.96 15.61,81.96 L16.96,71.5 L48.88,107.41 C49.01,107.55 49.21,107.62 49.4,107.57 C68.63,102.49 77.08,85.9 87.13,70.84 C94.84,59.28 106.37,46.96 121.21,43.16 C122.39,44.46 121.87,55.36 120.58,55.79 C107.43,60.15 99.36,67.61 92.16,78.42 Z" fill="#2E7D32"/>
  <path d="M78.85,83.52 L81.87,94.67 C81.87,94.67 91.07,81.21 92.56,77.95 L89.22,67.9 C84.76,73.45 78.85,83.52 78.85,83.52 Z" fill="#FFC06C"/>
  <path d="M78.07,17.01 C78.84,18.12 80.19,19.27 82.36,19.94 C83.13,20.18 83.94,20.3 84.75,20.3 C86.47,20.3 87.91,19.77 88.88,19.28 C91.31,21.72 94.35,24.69 97.29,27.57 C100.17,30.39 103.13,33.29 105.54,35.7 C104.76,36.89 104.14,38.69 104.4,41.12 C104.52,42.24 105.31,43.38 106.15,44.31 C100.83,47.73 90.62,55.33 80.15,68.73 C77.94,71.56 75.78,74.7 73.7,77.73 C68.52,85.27 63.17,93.05 56.05,97.81 C55.21,96.44 53.66,94.78 50.89,94.09 C50.22,93.92 49.56,93.84 48.93,93.84 C47.15,93.84 45.75,94.5 44.75,95.28 L29.65,77.92 C30.92,76.93 32.11,75.24 32.23,72.63 C32.29,71.41 31.64,70.3 30.9,69.46 C38.26,64.01 46.03,55.32 50.21,49.08 C50.82,48.17 51.45,47.22 52.1,46.24 C58.64,36.37 67.5,23.05 78.07,17.01 M78.86,14.67 C66.14,20.97 56.01,37.38 48.8,48.12 C44.08,55.15 35.55,64.32 28.2,69.27 C28.2,69.27 30.61,70.98 30.53,72.53 C30.33,76.69 26.95,77.39 26.95,77.39 L44.7,97.79 C44.7,97.79 46,95.51 48.92,95.51 C49.39,95.51 49.91,95.57 50.47,95.71 C54.49,96.71 55.3,100.25 55.3,100.25 C66.64,93.65 73.49,79.98 81.47,69.75 C92.3,55.88 103.07,48.02 108.9,44.57 C108.9,44.57 106.22,42.4 106.07,40.92 C105.66,37.03 107.86,35.63 107.86,35.63 C102.71,30.42 94.25,22.31 89.13,17.12 C89.13,17.12 87.27,18.58 84.74,18.58 C84.14,18.58 83.5,18.5 82.85,18.3 C79.17,17.19 78.86,14.67 78.86,14.67 L78.86,14.67 Z" fill="#2E7D32"/>
  <path d="M53.82,33.32 L44.09,48.03 L78.85,83.52 C78.85,83.52 84.53,74.54 89.21,67.9 L53.82,33.32 Z" fill="#FFECB3"/>
  <path d="M90.62,72.12 C90.62,72.12 83.76,75.61 81.89,86.25 C81.18,90.27 81.88,94.67 81.88,94.67 L87.54,85.96 L91.59,73.85 L90.62,72.12 Z" fill="#D69136" opacity="0.68"/>
  <path d="M88.65,74.43 C90.64,72.52 91.3,71.93 97.52,71.48 C103.66,71.03 106.48,68.34 114.24,69.95 C117.52,70.63 122.72,73.63 121.4,85.59 C120.9,90.15 121.02,100.69 123.17,110.24 C124.9,117.92 120.17,115.95 118.87,114.88 C114.23,111.07 114.03,102.44 114.03,102.44 C114.03,102.44 113.59,115.26 108.9,110.73 C105.1,107.05 107.01,98.35 107.01,98.35 C107.01,98.35 104.55,107.23 100.4,103.69 C97.55,101.26 99.67,91.74 99.67,91.74 C99.67,91.74 96.36,99.51 93.9,98.22 C90.14,96.26 91.92,88.25 91.92,88.25 C91.92,88.25 88.48,95.84 86.24,94.31 C82.9,92.03 84.11,84.92 84.11,84.92 C84.11,84.92 85.09,77.84 88.65,74.43 Z" fill="#E0E0E0"/>
  <path d="M118.34,79.28 C118.34,79.28 118.82,85.46 118.39,89.15 C118.12,91.44 118,93.54 115.9,93.23 C115.39,93.15 114.2,92.16 113.99,88.35 C113.77,84.31 114.61,78.97 114.02,78.57 C113.43,78.16 113.4,85.17 110.48,89.56 C109.38,91.21 107.53,91.39 107.24,87.04 C106.92,82.31 109.37,76.71 109.02,76.23 C109.02,76.23 106.95,78.78 105.75,82.39 C104.55,86 104.02,87.7 102.61,86.66 C100.08,84.8 103.79,77.39 103.79,77.39 C103.79,77.39 101.07,79.82 99.89,83.22 C99.14,85.38 99.55,88.93 101.47,89.83 C103.73,90.89 105.05,89 105.05,89 C105.05,89 105.53,95.05 108.48,94.92 C111.31,94.79 112.03,91.6 112.03,91.6 C112.03,91.6 111.91,94.68 114.77,96.79 C116.16,97.82 119.39,97.99 119.79,93.91 C120.44,87.29 118.34,79.28 118.34,79.28 Z" fill="#BDBDBD"/>
  <path d="M95.07,77.11 C94.46,76.96 93.58,79.71 92.48,81.26 C92.06,81.84 91.16,83.03 89.78,82.93 C88.4,82.83 89.49,78.77 89.17,78.99 C88.85,79.21 87.56,81.38 88.07,83.9 C88.21,84.6 88.92,85.43 89.62,85.54 C92.24,85.96 93.39,82.74 93.39,82.74 C93.39,82.74 93,86.59 95.59,86.99 C98.72,87.47 99.36,82.54 99.08,82.36 C98.8,82.18 97.79,85.46 95.56,84.06 C93.73,82.9 95.68,77.27 95.07,77.11 Z" fill="#BDBDBD"/>
  <path d="M15.61,81.95 L48.04,119.94 C48.04,119.94 49.49,117.79 49.82,114.44 C50.11,111.52 49.09,107.64 49.09,107.64 L16.96,71.49 L15.61,81.95 Z" fill="#206022"/>
</svg>
